packages/astro-components-stencil/src/icons/arrow-back.svg

<svg width="24" height="24" viewBox="0 0 24 24" fill="none" xmlns="http://www.w3.org/2000/svg">
<path d="M19 11.0002H7.82998L12.71 6.12021C13.1 5.73021 13.1 5.09021 12.71 4.70021C12.32 4.31021 11.69 4.31021 11.3 4.70021L4.70998 11.2902C4.31998 11.6802 4.31998 12.3102 4.70998 12.7002L11.3 19.2902C11.69 19.6802 12.32 19.6802 12.71 19.2902C13.1 18.9002 13.1 18.2702 12.71 17.8802L7.82998 13.0002H19C19.55 13.0002 20 12.5502 20 12.0002C20 11.4502 19.55 11.0002 19 11.0002Z" fill="black"/>
</svg>

<svg xmlns="http://www.w3.org/2000/svg" viewBox="0 0 24 24"><g xmlns="http://www.w3.org/2000/svg" id="arrow-back" fill-rule="nonzero">
            <path d="M19 11H7.83l4.88-4.88c.39-.39.39-1.03 0-1.42a.996.996 0 00-1.41 0l-6.59 6.59a.996.996 0 000 1.41l6.59 6.59a.996.996 0 101.41-1.41L7.83 13H19c.55 0 1-.45 1-1s-.45-1-1-1z"/>
        </g></svg>
